X:1
T:A solis ortus
T:A solis ortus
T:Adrien Petit Coclico
C:Adrien Petit Coclico
%%score [ 1 2 3 4 ]
L:1/8
Q:1/4=120
M:2/2
K:C
V:1 treble nm="Soprano" snm="S"
V:2 treble-8 nm="Tenor 1" snm="T 1"
V:3 treble-8 nm="Tenor 2" snm="T 2"
V:4 treble-8 nm="Tenor 3" snm="T 3"
V:1
 A8 | B4 c4 | d4 e4 | A4 B4 | d4 c4 | B4 (c4 | c4) (d4 | d2) d2 c3 B | AG A2 G3 F | ED E2 D2 dc | %10
w: A|so- lis|or- *|tus car-|* di-|* ne|_ [ad|_ us- * *|* * que ter- *|* * * rae li- *|
 BAGF DFGA | BGGA/B/ c2 A2 | A2 ^G2 A4 | z8 | z8 | z4 G3 A | B2 A2 G3 A | B4 c3 B | A2 G4 A2 | %19
w: ||* mi- tem|||Chri- *||||
 B2 G4 ^F2 | G2 B2 c2 BA | G3 A B4 | B4 A4 | d3 c B2 A2 | G3 E A4 | G2 A2 DEFG | A2 FG ABcd | %27
w: |stum ca- na- * *||mus prin-|||||
 e2 d4 ^c2 | d2 D2 F4 | A4 A4 | c4 A2 (G2 | G2) F2 EFGA | B2 c4 (d2 | d2) e4 d2 | e2 c4 B2 | %35
w: * * ci-|pem na- tum|de Ma-|ri- * *||a vir- *|||
 A4 (^G4 | G8) |] %37
w: gi- ne.|]|
V:2
 z4 (d4 | d4) e4 | f4 g4 | a4 (d4 | d4) e4 | g4 f4 | e4 f4 | d4 g4 | f4 e3 d | cB c2 d2 (f2 | %10
w: A|_ so-|lis or-|* tus|_ car-|* di-|* ne|[ad us-|que ter- *|* * * rae li-|
 f)def g2 e2 | d2 g2 c2 d2 | e4 c2 c2 | d3 e f4 | e4 d4 | c4 (d4 | d4) e4 | e4 c2 (f2 | f2) g4 fe | %19
w: ||mi- tem Chri-|||* stum|_ ca-|na- mus prin-||
 d6 d2 | B2 e4 d2 | e2 e2 g3 f | e2 d2 c4 | d4 e2 f2 | g2 e2 d2 (e2 | e2) f4 e2 | f4 z2 a2 | %27
w: * ci-|pem ca- *|na- mus prin- *||||* * ci-|pem na-|
 g3 f e4 | d2 f4 ed | c2 f4 (a2 | a2) gf e3 d | cB A2 B2 e2 | edcB AG A2 | G2 c4 B2 | c2 e3 dcB | %35
w: |tum de Ma- *|* ri- *||* * * * a|vir- * * * * * *|||
 c4 (B4 | B8) |] %37
w: gi- ne.|]|
V:3
 z8 | z8 | z8 | z8 | z8 | z8 | A8 | B4 c4 | d4 e4 | A4 B4 | d4 c4 | B2 d3 cBA | B4 A4 | z8 | %14
w: ||||||A|so- lis|or- *|tus car-|||di- ne||
 A4 B4 | c4 B3 A | G2 F2 E4 | G4 A4 | c4 c4 | B4 A4 | G4 A4 | B4 (B4 | B4) z4 | z4 z2 A2 | %24
w: [ad us-|que ter- *|* rae li-||* mi-|tem _|Chri- *|* stum|_|ca-|
 B3 c d2 c2 | B2 A2 G4 | F2 D2 F4 | G4 G4 | z4 D4 | F4 A4 | A4 c4 | A4 G4 | E4 F4 | G4 F4 | (E8 | %35
w: na- * * *||* mus prin-|ci- pem|na-|tum de|Ma- ri-|* a|vir- *|* gi-|ne.|
 (E8) | E8) |] %37
w: _|]|
V:4
 z8 | z8 | z8 | z8 | z8 | z8 | z4 (D4 | D4) E4 | F4 G4 | A4 (D4 | D4) E4 | G4 F4 | E4 z4 | %13
w: ||||||A|_ so-|lis or-|tus car-||* di-|ne|
 G4 A3 B | c4 B4 | A4 G4 | G2 A2 B4 | B4 A3 G | F2 E4 F2 | G4 D4 | E2 G2 F4 | E4 E3 D | %22
w: [ad us- que|ter- *|* rae|li- * *|mi- tem _|_ Chri- *|||stum ca- *|
 EF G2 C2 c2 | B3 A G2 F2 | E4 F2 (E2 | E2) A2 _B4 | A4 D4 | z8 | D3 C DE (F2 | F2) A2 A2 c2 | %30
w: ||na- * *|* mus prin-|ci- pem||na- * * * *|* * tum de|
 c2 A3 B c2 | CDEF GA (B2 | B2) G2 A2 (D2 | D2) C2 D4 | A,2 C4 G,2 | A,4 (E4 | E8) |] %37
w: Ma- ri- * *|* * * * * * a|_ vir- * *|||gi- ne.|]|

